X: 30075
T: Oh! But Will You Come To Town
R: slip jig
M: 9/8
K: Amixolydian
|:ecA A3 A2f|ecA A2A Bcd|ecA A2E EAc|B2B G2G Bcd:|
|:e2a aea g2d|e2a aea ged|1 e2a aea ged|B2B G2G Bcd:|2 a2a g2g fed|B2B G2G Bcd||

